images/33133.svg

<?xml version="1.0" encoding="UTF-8"?>
<svg xmlns="http://www.w3.org/2000/svg" xmlns:xlink="http://www.w3.org/1999/xlink" width="300pt" height="300pt" viewBox="0 0 300 300" version="1.1">
<defs>
<g>
<symbol overflow="visible" id="glyph0-0">
<path style="stroke:none;" d="M 0.546875 1.9375 L 0.546875 -7.75 L 6.046875 -7.75 L 6.046875 1.9375 Z M 1.171875 1.328125 L 5.4375 1.328125 L 5.4375 -7.140625 L 1.171875 -7.140625 Z M 1.171875 1.328125 "/>
</symbol>
<symbol overflow="visible" id="glyph0-1">
<path style="stroke:none;" d="M 4.328125 -7.28125 C 3.546875 -7.28125 2.921875 -6.984375 2.453125 -6.390625 C 1.992188 -5.804688 1.765625 -5.007812 1.765625 -4 C 1.765625 -2.988281 1.992188 -2.1875 2.453125 -1.59375 C 2.921875 -1.007812 3.546875 -0.71875 4.328125 -0.71875 C 5.117188 -0.71875 5.742188 -1.007812 6.203125 -1.59375 C 6.660156 -2.1875 6.890625 -2.988281 6.890625 -4 C 6.890625 -5.007812 6.660156 -5.804688 6.203125 -6.390625 C 5.742188 -6.984375 5.117188 -7.28125 4.328125 -7.28125 Z M 4.328125 -8.171875 C 5.453125 -8.171875 6.351562 -7.789062 7.03125 -7.03125 C 7.707031 -6.28125 8.046875 -5.269531 8.046875 -4 C 8.046875 -2.738281 7.707031 -1.726562 7.03125 -0.96875 C 6.351562 -0.21875 5.453125 0.15625 4.328125 0.15625 C 3.203125 0.15625 2.300781 -0.21875 1.625 -0.96875 C 0.957031 -1.71875 0.625 -2.726562 0.625 -4 C 0.625 -5.269531 0.957031 -6.28125 1.625 -7.03125 C 2.300781 -7.789062 3.203125 -8.171875 4.328125 -8.171875 Z M 4.328125 -8.171875 "/>
</symbol>
<symbol overflow="visible" id="glyph0-2">
<path style="stroke:none;" d="M 2.171875 -7.125 L 2.171875 -4.109375 L 3.53125 -4.109375 C 4.03125 -4.109375 4.414062 -4.238281 4.6875 -4.5 C 4.96875 -4.769531 5.109375 -5.144531 5.109375 -5.625 C 5.109375 -6.101562 4.96875 -6.472656 4.6875 -6.734375 C 4.414062 -6.992188 4.03125 -7.125 3.53125 -7.125 Z M 1.078125 -8.015625 L 3.53125 -8.015625 C 4.425781 -8.015625 5.101562 -7.8125 5.5625 -7.40625 C 6.019531 -7 6.25 -6.40625 6.25 -5.625 C 6.25 -4.832031 6.019531 -4.234375 5.5625 -3.828125 C 5.101562 -3.421875 4.425781 -3.21875 3.53125 -3.21875 L 2.171875 -3.21875 L 2.171875 0 L 1.078125 0 Z M 1.078125 -8.015625 "/>
</symbol>
</g>
</defs>
<g id="surface34565">
<rect x="0" y="0" width="300" height="300" style="fill:rgb(100%,100%,100%);fill-opacity:1;stroke:none;"/>
<path style="fill:none;stroke-width:1.2;stroke-linecap:butt;stroke-linejoin:miter;stroke:rgb(0%,0%,0%);stroke-opacity:1;stroke-miterlimit:10;" d="M 56.640625 164.261719 L 65.121094 137.226562 "/>
<path style="fill:none;stroke-width:1.2;stroke-linecap:butt;stroke-linejoin:miter;stroke:rgb(0%,0%,0%);stroke-opacity:1;stroke-miterlimit:10;" d="M 65.121094 137.226562 L 45.945312 116.363281 "/>
<path style="fill:none;stroke-width:1.2;stroke-linecap:butt;stroke-linejoin:miter;stroke:rgb(0%,0%,0%);stroke-opacity:1;stroke-miterlimit:10;" d="M 68.113281 130.628906 L 52.773438 113.9375 "/>
<path style="fill:none;stroke-width:1.2;stroke-linecap:butt;stroke-linejoin:miter;stroke:rgb(0%,0%,0%);stroke-opacity:1;stroke-miterlimit:10;" d="M 92.777344 131.050781 L 65.121094 137.226562 "/>
<path style="fill:none;stroke-width:1.2;stroke-linecap:butt;stroke-linejoin:miter;stroke:rgb(0%,0%,0%);stroke-opacity:1;stroke-miterlimit:10;" d="M 45.945312 116.363281 L 54.425781 89.324219 "/>
<path style="fill:none;stroke-width:1.2;stroke-linecap:butt;stroke-linejoin:miter;stroke:rgb(0%,0%,0%);stroke-opacity:1;stroke-miterlimit:10;" d="M 54.425781 89.324219 L 82.082031 83.148438 "/>
<path style="fill:none;stroke-width:1.2;stroke-linecap:butt;stroke-linejoin:miter;stroke:rgb(0%,0%,0%);stroke-opacity:1;stroke-miterlimit:10;" d="M 58.644531 95.214844 L 80.769531 90.273438 "/>
<path style="fill:none;stroke-width:1.2;stroke-linecap:butt;stroke-linejoin:miter;stroke:rgb(0%,0%,0%);stroke-opacity:1;stroke-miterlimit:10;" d="M 54.425781 89.324219 L 35.25 68.460938 "/>
<path style="fill:none;stroke-width:1.2;stroke-linecap:butt;stroke-linejoin:miter;stroke:rgb(0%,0%,0%);stroke-opacity:1;stroke-miterlimit:10;" d="M 82.082031 83.148438 L 101.257812 104.011719 "/>
<path style="fill:none;stroke-width:1.2;stroke-linecap:butt;stroke-linejoin:miter;stroke:rgb(0%,0%,0%);stroke-opacity:1;stroke-miterlimit:10;" d="M 101.257812 104.011719 L 92.777344 131.050781 "/>
<path style="fill:none;stroke-width:1.2;stroke-linecap:butt;stroke-linejoin:miter;stroke:rgb(0%,0%,0%);stroke-opacity:1;stroke-miterlimit:10;" d="M 94.046875 104.722656 L 87.261719 126.351562 "/>
<path style="fill:none;stroke-width:1.2;stroke-linecap:butt;stroke-linejoin:miter;stroke:rgb(0%,0%,0%);stroke-opacity:1;stroke-miterlimit:10;" d="M 101.257812 104.011719 L 115.082031 100.925781 "/>
<path style="fill:none;stroke-width:1.2;stroke-linecap:butt;stroke-linejoin:miter;stroke:rgb(100%,0%,0%);stroke-opacity:1;stroke-miterlimit:10;" d="M 115.082031 100.925781 L 128.910156 97.835938 "/>
<path style="fill:none;stroke-width:1.2;stroke-linecap:butt;stroke-linejoin:miter;stroke:rgb(100%,0%,0%);stroke-opacity:1;stroke-miterlimit:10;" d="M 128.910156 97.835938 L 138.5 108.269531 "/>
<path style="fill:none;stroke-width:1.2;stroke-linecap:butt;stroke-linejoin:miter;stroke:rgb(100%,50%,0%);stroke-opacity:1;stroke-miterlimit:10;" d="M 138.5 108.269531 L 148.085938 118.699219 "/>
<path style=" stroke:none;fill-rule:nonzero;fill:rgb(100%,100%,100%);fill-opacity:1;" d="M 124.910156 91.335938 L 133.910156 91.335938 L 133.910156 104.335938 L 124.910156 104.335938 Z M 124.910156 91.335938 "/>
<g style="fill:rgb(100%,0%,0%);fill-opacity:1;">
  <use xlink:href="#glyph0-1" x="124.910156" y="101.237305"/>
</g>
<path style="fill:none;stroke-width:1.2;stroke-linecap:butt;stroke-linejoin:miter;stroke:rgb(100%,50%,0%);stroke-opacity:1;stroke-miterlimit:10;" d="M 145.632812 120.957031 L 155.21875 131.386719 "/>
<path style="fill:none;stroke-width:1.2;stroke-linecap:butt;stroke-linejoin:miter;stroke:rgb(100%,0%,0%);stroke-opacity:1;stroke-miterlimit:10;" d="M 155.21875 131.386719 L 164.808594 141.820312 "/>
<path style="fill:none;stroke-width:1.2;stroke-linecap:butt;stroke-linejoin:miter;stroke:rgb(100%,50%,0%);stroke-opacity:1;stroke-miterlimit:10;" d="M 150.542969 116.445312 L 160.128906 126.875 "/>
<path style="fill:none;stroke-width:1.2;stroke-linecap:butt;stroke-linejoin:miter;stroke:rgb(100%,0%,0%);stroke-opacity:1;stroke-miterlimit:10;" d="M 160.128906 126.875 L 169.714844 137.308594 "/>
<path style="fill:none;stroke-width:1.2;stroke-linecap:butt;stroke-linejoin:miter;stroke:rgb(100%,50%,0%);stroke-opacity:1;stroke-miterlimit:10;" d="M 148.085938 118.699219 L 137.65625 128.289062 "/>
<path style="fill:none;stroke-width:1.2;stroke-linecap:butt;stroke-linejoin:miter;stroke:rgb(100%,0%,0%);stroke-opacity:1;stroke-miterlimit:10;" d="M 137.65625 128.289062 L 127.222656 137.875 "/>
<path style="fill:none;stroke-width:1.2;stroke-linecap:butt;stroke-linejoin:miter;stroke:rgb(100%,50%,0%);stroke-opacity:1;stroke-miterlimit:10;" d="M 148.085938 118.699219 L 158.519531 109.113281 "/>
<path style="fill:none;stroke-width:1.2;stroke-linecap:butt;stroke-linejoin:miter;stroke:rgb(100%,0%,0%);stroke-opacity:1;stroke-miterlimit:10;" d="M 158.519531 109.113281 L 168.949219 99.523438 "/>
<path style=" stroke:none;fill-rule:nonzero;fill:rgb(100%,100%,100%);fill-opacity:1;" d="M 145.085938 112.199219 L 152.085938 112.199219 L 152.085938 125.199219 L 145.085938 125.199219 Z M 145.085938 112.199219 "/>
<g style="fill:rgb(100%,50%,0%);fill-opacity:1;">
  <use xlink:href="#glyph0-2" x="145.085938" y="122.100586"/>
</g>
<path style=" stroke:none;fill-rule:nonzero;fill:rgb(100%,100%,100%);fill-opacity:1;" d="M 163.261719 133.0625 L 172.261719 133.0625 L 172.261719 146.0625 L 163.261719 146.0625 Z M 163.261719 133.0625 "/>
<g style="fill:rgb(100%,0%,0%);fill-opacity:1;">
  <use xlink:href="#glyph0-1" x="163.261719" y="142.963867"/>
</g>
<path style="fill:none;stroke-width:1.2;stroke-linecap:butt;stroke-linejoin:miter;stroke:rgb(100%,0%,0%);stroke-opacity:1;stroke-miterlimit:10;" d="M 127.222656 137.875 L 130.3125 151.703125 "/>
<path style="fill:none;stroke-width:1.2;stroke-linecap:butt;stroke-linejoin:miter;stroke:rgb(0%,0%,0%);stroke-opacity:1;stroke-miterlimit:10;" d="M 130.3125 151.703125 L 133.398438 165.53125 "/>
<path style=" stroke:none;fill-rule:nonzero;fill:rgb(100%,100%,100%);fill-opacity:1;" d="M 123.222656 131.375 L 132.222656 131.375 L 132.222656 144.375 L 123.222656 144.375 Z M 123.222656 131.375 "/>
<g style="fill:rgb(100%,0%,0%);fill-opacity:1;">
  <use xlink:href="#glyph0-1" x="123.222656" y="141.276367"/>
</g>
<path style="fill:none;stroke-width:1.2;stroke-linecap:butt;stroke-linejoin:miter;stroke:rgb(0%,0%,0%);stroke-opacity:1;stroke-miterlimit:10;" d="M 133.398438 165.53125 L 112.535156 184.707031 "/>
<path style="fill:none;stroke-width:1.2;stroke-linecap:butt;stroke-linejoin:miter;stroke:rgb(0%,0%,0%);stroke-opacity:1;stroke-miterlimit:10;" d="M 135.824219 172.359375 L 119.136719 187.699219 "/>
<path style="fill:none;stroke-width:1.2;stroke-linecap:butt;stroke-linejoin:miter;stroke:rgb(0%,0%,0%);stroke-opacity:1;stroke-miterlimit:10;" d="M 160.4375 174.011719 L 133.398438 165.53125 "/>
<path style="fill:none;stroke-width:1.2;stroke-linecap:butt;stroke-linejoin:miter;stroke:rgb(0%,0%,0%);stroke-opacity:1;stroke-miterlimit:10;" d="M 112.535156 184.707031 L 118.710938 212.363281 "/>
<path style="fill:none;stroke-width:1.2;stroke-linecap:butt;stroke-linejoin:miter;stroke:rgb(0%,0%,0%);stroke-opacity:1;stroke-miterlimit:10;" d="M 118.710938 212.363281 L 145.75 220.839844 "/>
<path style="fill:none;stroke-width:1.2;stroke-linecap:butt;stroke-linejoin:miter;stroke:rgb(0%,0%,0%);stroke-opacity:1;stroke-miterlimit:10;" d="M 123.410156 206.847656 L 145.039062 213.632812 "/>
<path style="fill:none;stroke-width:1.2;stroke-linecap:butt;stroke-linejoin:miter;stroke:rgb(0%,0%,0%);stroke-opacity:1;stroke-miterlimit:10;" d="M 118.710938 212.363281 L 97.847656 231.539062 "/>
<path style="fill:none;stroke-width:1.2;stroke-linecap:butt;stroke-linejoin:miter;stroke:rgb(0%,0%,0%);stroke-opacity:1;stroke-miterlimit:10;" d="M 145.75 220.839844 L 166.613281 201.667969 "/>
<path style="fill:none;stroke-width:1.2;stroke-linecap:butt;stroke-linejoin:miter;stroke:rgb(0%,0%,0%);stroke-opacity:1;stroke-miterlimit:10;" d="M 166.613281 201.667969 L 160.4375 174.011719 "/>
<path style="fill:none;stroke-width:1.2;stroke-linecap:butt;stroke-linejoin:miter;stroke:rgb(0%,0%,0%);stroke-opacity:1;stroke-miterlimit:10;" d="M 159.488281 200.355469 L 154.546875 178.230469 "/>
<path style="fill:none;stroke-width:1.2;stroke-linecap:butt;stroke-linejoin:miter;stroke:rgb(0%,0%,0%);stroke-opacity:1;stroke-miterlimit:10;" d="M 166.613281 201.667969 L 193.648438 210.144531 "/>
<path style="fill:none;stroke-width:1.2;stroke-linecap:butt;stroke-linejoin:miter;stroke:rgb(100%,0%,0%);stroke-opacity:1;stroke-miterlimit:10;" d="M 168.949219 99.523438 L 182.46875 103.765625 "/>
<path style="fill:none;stroke-width:1.2;stroke-linecap:butt;stroke-linejoin:miter;stroke:rgb(0%,0%,0%);stroke-opacity:1;stroke-miterlimit:10;" d="M 182.46875 103.765625 L 195.988281 108.003906 "/>
<path style=" stroke:none;fill-rule:nonzero;fill:rgb(100%,100%,100%);fill-opacity:1;" d="M 164.949219 93.023438 L 173.949219 93.023438 L 173.949219 106.023438 L 164.949219 106.023438 Z M 164.949219 93.023438 "/>
<g style="fill:rgb(100%,0%,0%);fill-opacity:1;">
  <use xlink:href="#glyph0-1" x="164.949219" y="102.924805"/>
</g>
<path style="fill:none;stroke-width:1.2;stroke-linecap:butt;stroke-linejoin:miter;stroke:rgb(0%,0%,0%);stroke-opacity:1;stroke-miterlimit:10;" d="M 195.988281 108.003906 L 202.164062 135.660156 "/>
<path style="fill:none;stroke-width:1.2;stroke-linecap:butt;stroke-linejoin:miter;stroke:rgb(0%,0%,0%);stroke-opacity:1;stroke-miterlimit:10;" d="M 203.113281 109.316406 L 208.050781 131.441406 "/>
<path style="fill:none;stroke-width:1.2;stroke-linecap:butt;stroke-linejoin:miter;stroke:rgb(0%,0%,0%);stroke-opacity:1;stroke-miterlimit:10;" d="M 216.851562 88.828125 L 195.988281 108.003906 "/>
<path style="fill:none;stroke-width:1.2;stroke-linecap:butt;stroke-linejoin:miter;stroke:rgb(0%,0%,0%);stroke-opacity:1;stroke-miterlimit:10;" d="M 202.164062 135.660156 L 229.199219 144.140625 "/>
<path style="fill:none;stroke-width:1.2;stroke-linecap:butt;stroke-linejoin:miter;stroke:rgb(0%,0%,0%);stroke-opacity:1;stroke-miterlimit:10;" d="M 229.199219 144.140625 L 250.0625 124.964844 "/>
<path style="fill:none;stroke-width:1.2;stroke-linecap:butt;stroke-linejoin:miter;stroke:rgb(0%,0%,0%);stroke-opacity:1;stroke-miterlimit:10;" d="M 226.773438 137.3125 L 243.464844 121.972656 "/>
<path style="fill:none;stroke-width:1.2;stroke-linecap:butt;stroke-linejoin:miter;stroke:rgb(0%,0%,0%);stroke-opacity:1;stroke-miterlimit:10;" d="M 229.199219 144.140625 L 235.375 171.796875 "/>
<path style="fill:none;stroke-width:1.2;stroke-linecap:butt;stroke-linejoin:miter;stroke:rgb(0%,0%,0%);stroke-opacity:1;stroke-miterlimit:10;" d="M 250.0625 124.964844 L 243.886719 97.308594 "/>
<path style="fill:none;stroke-width:1.2;stroke-linecap:butt;stroke-linejoin:miter;stroke:rgb(0%,0%,0%);stroke-opacity:1;stroke-miterlimit:10;" d="M 243.886719 97.308594 L 216.851562 88.828125 "/>
<path style="fill:none;stroke-width:1.2;stroke-linecap:butt;stroke-linejoin:miter;stroke:rgb(0%,0%,0%);stroke-opacity:1;stroke-miterlimit:10;" d="M 239.1875 102.824219 L 217.558594 96.039062 "/>
<path style="fill:none;stroke-width:1.2;stroke-linecap:butt;stroke-linejoin:miter;stroke:rgb(0%,0%,0%);stroke-opacity:1;stroke-miterlimit:10;" d="M 243.886719 97.308594 L 264.75 78.132812 "/>
</g>
</svg>

<svg xmlns="http://www.w3.org/2000/svg" xmlns:xlink="http://www.w3.org/1999/xlink" width="300pt" height="300pt" viewBox="0 0 300 300"><defs><symbol overflow="visible"><path d="M.547 1.938V-7.75h5.5v9.688zm.625-.61h4.266v-8.47H1.171zm0 0"/></symbol><symbol overflow="visible" id="a"><path d="M4.328-7.28c-.78 0-1.406.296-1.875.89-.46.585-.687 1.382-.687 2.39 0 1.012.226 1.813.687 2.406.47.586 1.094.875 1.875.875.79 0 1.414-.288 1.875-.874.457-.593.688-1.394.688-2.406 0-1.008-.23-1.805-.687-2.39-.46-.594-1.086-.89-1.875-.89zm0-.892c1.125 0 2.024.383 2.703 1.14C7.708-6.28 8.048-5.27 8.048-4c0 1.262-.34 2.273-1.016 3.03C6.353-.22 5.454.157 4.33.157S2.3-.22 1.625-.97c-.668-.75-1-1.757-1-3.03 0-1.27.332-2.28 1-3.03.676-.76 1.578-1.142 2.703-1.142zm0 0"/></symbol><symbol overflow="visible" id="b"><path d="M2.172-7.125v3.016h1.36c.5 0 .882-.128 1.155-.39.282-.27.422-.645.422-1.125 0-.477-.14-.848-.423-1.11-.273-.257-.656-.39-1.156-.39zm-1.094-.89H3.53c.896 0 1.572.203 2.033.61.457.405.687 1 .687 1.78 0 .793-.23 1.39-.688 1.797-.46.406-1.136.61-2.03.61H2.17V0H1.078zm0 0"/></symbol></defs><g><path fill="#fff" d="M0 0h300v300H0z"/><path d="M56.64 164.262l8.48-27.035M65.12 137.227l-19.175-20.864M68.113 130.63l-15.34-16.692M92.777 131.05l-27.656 6.177M45.945 116.363l8.48-27.04M54.426 89.324l27.656-6.176M58.645 95.215l22.125-4.942M54.426 89.324L35.25 68.46M82.082 83.148l19.176 20.864M101.258 104.012l-8.48 27.04M94.047 104.723l-6.785 21.63M101.258 104.012l13.824-3.086" stroke-width="1.2" stroke="#000" stroke-miterlimit="10" fill="none"/><path d="M115.082 100.926l13.828-3.09M128.91 97.836l9.59 10.434" stroke-width="1.2" stroke="#f00" stroke-miterlimit="10" fill="none"/><path d="M138.5 108.27l9.586 10.43" stroke-width="1.2" stroke="#ff7f00" stroke-miterlimit="10" fill="none"/><path d="M124.91 91.336h9v13h-9zm0 0" fill="#fff"/><use xlink:href="#a" x="124.91" y="101.237" fill="#f00"/><path d="M145.633 120.957l9.586 10.43" stroke-width="1.2" stroke="#ff7f00" stroke-miterlimit="10" fill="none"/><path d="M155.22 131.387l9.59 10.433" stroke-width="1.2" stroke="#f00" stroke-miterlimit="10" fill="none"/><path d="M150.543 116.445l9.586 10.43" stroke-width="1.2" stroke="#ff7f00" stroke-miterlimit="10" fill="none"/><path d="M160.13 126.875l9.585 10.434" stroke-width="1.2" stroke="#f00" stroke-miterlimit="10" fill="none"/><path d="M148.086 118.7l-10.43 9.59" stroke-width="1.2" stroke="#ff7f00" stroke-miterlimit="10" fill="none"/><path d="M137.656 128.29l-10.433 9.585" stroke-width="1.2" stroke="#f00" stroke-miterlimit="10" fill="none"/><path d="M148.086 118.7l10.434-9.587" stroke-width="1.2" stroke="#ff7f00" stroke-miterlimit="10" fill="none"/><path d="M158.52 109.113l10.43-9.59" stroke-width="1.2" stroke="#f00" stroke-miterlimit="10" fill="none"/><path d="M145.086 112.2h7v13h-7zm0 0" fill="#fff"/><use xlink:href="#b" x="145.086" y="122.101" fill="#ff7f00"/><path d="M163.262 133.063h9v13h-9zm0 0" fill="#fff"/><use xlink:href="#a" x="163.262" y="142.964" fill="#f00"/><path d="M127.223 137.875l3.09 13.828" stroke-width="1.2" stroke="#f00" stroke-miterlimit="10" fill="none"/><path d="M130.313 151.703l3.085 13.828" stroke-width="1.2" stroke="#000" stroke-miterlimit="10" fill="none"/><path d="M123.223 131.375h9v13h-9zm0 0" fill="#fff"/><use xlink:href="#a" x="123.223" y="141.276" fill="#f00"/><path d="M133.398 165.53l-20.863 19.177M135.824 172.36l-16.687 15.34M160.438 174.012l-27.04-8.48M112.535 184.707l6.176 27.656M118.71 212.363l27.04 8.477M123.41 206.848l21.63 6.785M118.71 212.363L97.85 231.54M145.75 220.84l20.863-19.172M166.613 201.668l-6.175-27.656M159.488 200.355l-4.94-22.125M166.613 201.668l27.035 8.477" stroke-width="1.2" stroke="#000" stroke-miterlimit="10" fill="none"/><path d="M168.95 99.523l13.52 4.243" stroke-width="1.2" stroke="#f00" stroke-miterlimit="10" fill="none"/><path d="M182.47 103.766l13.518 4.238" stroke-width="1.2" stroke="#000" stroke-miterlimit="10" fill="none"/><path d="M164.95 93.023h9v13h-9zm0 0" fill="#fff"/><use xlink:href="#a" x="164.949" y="102.925" fill="#f00"/><path d="M195.988 108.004l6.176 27.656M203.113 109.316l4.938 22.125M216.852 88.828l-20.864 19.176M202.164 135.66l27.035 8.48M229.2 144.14l20.863-19.175M226.773 137.313l16.692-15.34M229.2 144.14l6.175 27.657M250.063 124.965l-6.176-27.656M243.887 97.31l-27.035-8.482M239.188 102.824l-21.63-6.785M243.887 97.31l20.863-19.177" stroke-width="1.2" stroke="#000" stroke-miterlimit="10" fill="none"/></g></svg>
